X:1
T:Sir Roger's Jig
C:Bruce Shawyer
R:Jig
I:speed 180
K:D
M:6/8
L:1/16
D6 D4d2|A2F2D2 A2F2D2|E4E2 E2F2D2|E2F2D2 C2B,2A,2|D6 D4B2|A2B2c2 d6|d4D2 D2E2D2|C2B,2A,2 A,2B,2C2|
D6 D4d2|A2F2D2 A2F2D2|E4E2 E2F2D2|E2F2D2 C2B,2A,2|D6 D4B2|A2B2c2 d6|d4D2 D2E2D2|C2D2E2 E2F2G2|
A2F2A2 B2G2B2|A2F2D2 A2F2D2|E4E2 E2F2D2|C2D2E2 E2F2G2|A2F2A2 B2G2B2|A2B2c2 d6|d4D2 D2E2D2|C2D2E2 E2F2G2|
A2F2A2 B2G2B2|A2F2D2 A2F2D2|E4E2 E2F2D2|C2D2E2 E2F2G2|A2F2A2 B2G2B2|A2B2c2 d6|d4D2 D2E2D2|C2B,2A,2 D6||
